X: 37030
T: Silly Lilly
R: jig
M: 6/8
K: Amixolydian
AAA cef|aef gfe|ddd BAG|AeA dcB|
Ace fec|aaa agf|ece dB^G|1 AAA A3:|2 Acd efg||
aaa fga|ggg gfe|fff efg|BdB Bcd|
ecA gec|afd dcB|ece dB^G|1 Acd efg:|2 A6||

